src/images/global/icons/social/pinterest-line.svg

<?xml version="1.0" encoding="UTF-8"?>
<svg width="48px" height="48px" viewBox="0 0 48 48" version="1.1" xmlns="http://www.w3.org/2000/svg" xmlns:xlink="http://www.w3.org/1999/xlink">
    <!-- Generator: Sketch 46.2 (44496) - http://www.bohemiancoding.com/sketch -->
    <title>icon/Social/pinterest-line</title>
    <desc>Created with Sketch.</desc>
    <defs>
        <path d="M16,0 C24.8366154,0 32,7.16338462 32,16 C32,24.8366154 24.8366154,32 16,32 C7.16338462,32 0,24.8366154 0,16 C0,7.16338462 7.16338462,0 16,0 Z M16,1.84615385 C8.19553846,1.84615385 1.84615385,8.19553846 1.84615385,16 C1.84615385,23.8044615 8.19553846,30.1538462 16,30.1538462 C23.8044615,30.1538462 30.1538462,23.8044615 30.1538462,16 C30.1538462,8.19553846 23.8044615,1.84615385 16,1.84615385 Z M16.2159341,8.22857143 C19.9948571,8.22857143 22.4819341,10.9625714 22.4817802,13.8984176 C22.4817802,17.7807253 20.3228571,20.6813407 17.1416264,20.6813407 C16.0728571,20.6813407 15.0679341,20.1036484 14.7240879,19.4478022 C14.7240879,19.4478022 14.149011,21.7281099 14.0277802,22.1682637 C13.5993187,23.7234945 12.3387033,25.2798022 12.2408571,25.407033 C12.1727033,25.4956484 12.0217802,25.467956 12.0057802,25.3505714 C11.9785495,25.1524176 11.6573187,23.1901099 12.0356264,21.5893407 C12.2253187,20.7856484 13.3085495,16.1964176 13.3085495,16.1964176 C13.3085495,16.1964176 12.9928571,15.5642637 12.9928571,14.6302637 C12.9928571,13.1634945 13.8431648,12.0685714 14.9016264,12.0685714 C15.8014725,12.0685714 16.2363956,12.7441099 16.2363956,13.5542637 C16.2363956,14.4593407 15.6602418,15.8124176 15.3625495,17.0661099 C15.1142418,18.1164176 15.8893187,18.9727253 16.9245495,18.9727253 C18.7994725,18.9727253 20.0627033,16.5641099 20.0627033,13.7104176 C20.0627033,11.5418022 18.6019341,9.9178022 15.9442418,9.9178022 C12.9428571,9.9178022 11.0713187,12.157033 11.0713187,14.657956 C11.0713187,15.519956 11.3260879,16.1285714 11.7247033,16.5988791 C11.9076264,16.8153407 11.9334725,16.9022637 11.8671648,17.1505714 C11.8187033,17.3328791 11.7105495,17.7708791 11.665011,17.9447253 C11.599011,18.1956484 11.3960879,18.2851868 11.1694725,18.1924176 C9.78716484,17.6281099 9.14285714,16.1134945 9.14285714,14.4113407 C9.14285714,11.599956 11.5136264,8.22857143 16.2159341,8.22857143 Z" id="path-1"></path>
    </defs>
    <g id="Symbols" stroke="none" stroke-width="1" fill="none" fill-rule="evenodd">
        <g id="icon/Social/pinterest-line">
            <g id="Icon" transform="translate(8.000000, 8.000000)">
                <mask id="mask-2" fill="white">
                    <use xlink:href="#path-1"></use>
                </mask>
                <use id="Mask" fill="#384048" xlink:href="#path-1"></use>
                <g id="Color/Grayscale/Night-Sky" mask="url(#mask-2)" fill="#111111">
                    <g transform="translate(-8.000000, -8.000000)" id="Swatch">
                        <rect x="0" y="0" width="48" height="48"></rect>
                    </g>
                </g>
            </g>
        </g>
    </g>
</svg>

<?xml version="1.0" encoding="utf-8"?>
<!-- Generator: Adobe Illustrator 21.0.2, SVG Export Plug-In . SVG Version: 6.00 Build 0)  -->
<svg version="1.1" id="icon_x2F_Social_x2F_pinterest-line-Layer_1" xmlns="http://www.w3.org/2000/svg" xmlns:xlink="http://www.w3.org/1999/xlink" x="0px" y="0px"
	 viewBox="0 0 48 48" style="enable-background:new 0 0 48 48;" xml:space="preserve">
<title>icon/Social/pinterest-line</title>
<desc>Created with Sketch.</desc>
<g id="icon_x2F_Social_x2F_pinterest-line-Symbols">
	<g id="icon_x2F_Social_x2F_pinterest-line">
		<g id="icon_x2F_Social_x2F_pinterest-line-Icon" transform="translate(8.000000, 8.000000)">
			<g id="icon_x2F_Social_x2F_pinterest-line-Mask">
				<path id="icon_x2F_Social_x2F_pinterest-line-path-1_1_" style="fill:#384048;" d="M16,0c8.8,0,16,7.2,16,16s-7.2,16-16,16S0,24.8,0,16S7.2,0,16,0z M16,1.8
					C8.2,1.8,1.8,8.2,1.8,16S8.2,30.2,16,30.2S30.2,23.8,30.2,16S23.8,1.8,16,1.8z M16.2,8.2c3.8,0,6.3,2.7,6.3,5.7
					c0,3.9-2.2,6.8-5.3,6.8c-1.1,0-2.1-0.6-2.4-1.2c0,0-0.6,2.3-0.7,2.7c-0.4,1.6-1.7,3.1-1.8,3.2c-0.1,0.1-0.2,0.1-0.2-0.1
					c0-0.2-0.3-2.2,0-3.8c0.2-0.8,1.3-5.4,1.3-5.4S13,15.6,13,14.6c0-1.5,0.9-2.6,1.9-2.6c0.9,0,1.3,0.7,1.3,1.5
					c0,0.9-0.6,2.3-0.9,3.5c-0.2,1.1,0.5,1.9,1.6,1.9c1.9,0,3.1-2.4,3.1-5.3c0-2.2-1.5-3.8-4.1-3.8c-3,0-4.9,2.2-4.9,4.7
					c0,0.9,0.3,1.5,0.7,1.9c0.2,0.2,0.2,0.3,0.1,0.6c0,0.2-0.2,0.6-0.2,0.8c-0.1,0.3-0.3,0.3-0.5,0.2c-1.4-0.6-2-2.1-2-3.8
					C9.1,11.6,11.5,8.2,16.2,8.2z"/>
			</g>
			<defs>
				<filter id="icon_x2F_Social_x2F_pinterest-line-Adobe_OpacityMaskFilter" filterUnits="userSpaceOnUse" x="-8" y="-8" width="48" height="48">
					<feColorMatrix  type="matrix" values="1 0 0 0 0  0 1 0 0 0  0 0 1 0 0  0 0 0 1 0"/>
				</filter>
			</defs>
			<mask maskUnits="userSpaceOnUse" x="-8" y="-8" width="48" height="48" id="icon_x2F_Social_x2F_pinterest-line-mask-2">
				<g style="filter:url(#icon_x2F_Social_x2F_pinterest-line-Adobe_OpacityMaskFilter);">
					<path id="icon_x2F_Social_x2F_pinterest-line-path-1" style="fill:#FFFFFF;" d="M16,0c8.8,0,16,7.2,16,16s-7.2,16-16,16S0,24.8,0,16S7.2,0,16,0z M16,1.8
						C8.2,1.8,1.8,8.2,1.8,16S8.2,30.2,16,30.2S30.2,23.8,30.2,16S23.8,1.8,16,1.8z M16.2,8.2c3.8,0,6.3,2.7,6.3,5.7
						c0,3.9-2.2,6.8-5.3,6.8c-1.1,0-2.1-0.6-2.4-1.2c0,0-0.6,2.3-0.7,2.7c-0.4,1.6-1.7,3.1-1.8,3.2c-0.1,0.1-0.2,0.1-0.2-0.1
						c0-0.2-0.3-2.2,0-3.8c0.2-0.8,1.3-5.4,1.3-5.4S13,15.6,13,14.6c0-1.5,0.9-2.6,1.9-2.6c0.9,0,1.3,0.7,1.3,1.5
						c0,0.9-0.6,2.3-0.9,3.5c-0.2,1.1,0.5,1.9,1.6,1.9c1.9,0,3.1-2.4,3.1-5.3c0-2.2-1.5-3.8-4.1-3.8c-3,0-4.9,2.2-4.9,4.7
						c0,0.9,0.3,1.5,0.7,1.9c0.2,0.2,0.2,0.3,0.1,0.6c0,0.2-0.2,0.6-0.2,0.8c-0.1,0.3-0.3,0.3-0.5,0.2c-1.4-0.6-2-2.1-2-3.8
						C9.1,11.6,11.5,8.2,16.2,8.2z"/>
				</g>
			</mask>
			<g id="icon_x2F_Social_x2F_pinterest-line-Color_x2F_Grayscale_x2F_Night-Sky" style="mask:url(#icon_x2F_Social_x2F_pinterest-line-mask-2);">
				<g id="icon_x2F_Social_x2F_pinterest-line-Swatch" transform="translate(-8.000000, -8.000000)">
					<rect style="fill:#111111;" width="48" height="48"/>
				</g>
			</g>
		</g>
	</g>
</g>
</svg>
